X:1
T:Pavane
T:Pavane
T:Anónimo s. XVI
C:Anónimo s. XVI
%%score ( 1 2 )
L:1/8
M:4/4
K:C
V:1 treble-8 nm="Classical Guitar" snm="Guit."
V:2 treble-8 
V:1
"^Capo 4" (!2!A3 !1!^G A2 B2 | !1!c3 !4!d c2) (e2 | !4!d2 !1!c2 c2 B2 |!>(! c4 c4)!>)! | %4
 (!2!A2 A^G A2 B2 | c3!<(! !0!B !1!c!4!d e2!<)! | !4!d2 c2 c2 B2 |!>(! c6) (e2!>)! | %8
 !4!d3 !1!c B2) (d2 | c3 B A2) (c2 | !0!B2 !2!A2 A2 !1!^G2 | !2!A6) (e2 | !4!d2 d!1!c B2) (d2 | %13
 !1!c!4!d cB A2) (c2 | !0!B2 !2!A2 A2 !1!^G2 | !2!A4 !arpeggio!!1!!2!!3![EA^c]4) |] %16
V:2
 A,6 !3!=G,2 | !3!C6 C2 | !3!G,2 A,2 G,4 | C4 C4 | A,6 =G,2 | C6 C2 | !3!G,2 A,2 G,4 | C4 C4 | %8
 !3!G,6 G,2 | A,6 A,2 | E,2 !1!F,2 !0!E,4 | A,4 A,2 !3!C2 | !3!G,6 G,2 | A,6 A,2 | E,2 !1!F,2 E,4 | %15
 A,4 A,4 |] %16

